icons/board.svg

<svg xmlns="http://www.w3.org/2000/svg" viewBox="0 0 24 24" fill="currentColor">
  <path d="M7 4.25c-1.78579 0-3.25 1.46421-3.25 3.25v6c0 1.7981 1.37646 3.25 3.25 3.25h1.48723c.00902-.0002.01804-.0002.02707 0h6.9716c.009-.0002.018-.0002.027 0H17c1.7858 0 3.25-1.4642 3.25-3.25v-6c0-1.78579-1.4642-3.25-3.25-3.25H7Zm9.9015 14H17c2.6142 0 4.75-2.1358 4.75-4.75v-6c0-2.61421-2.1358-4.75-4.75-4.75H7c-2.61421 0-4.75 2.13579-4.75 4.75v6c0 2.6019 2.02354 4.75 4.75 4.75h.09866l-1.22262 1.8339c-.22976.3447-.13663.8103.20801 1.0401.34465.2298.8103.1366 1.04007-.208l1.77732-2.666h6.19726l1.7773 2.666c.2298.3446.6955.4378 1.0401.208.3447-.2298.4378-.6954.208-1.0401L16.9015 18.25Z"/>
</svg>

<svg width="24" height="24" viewBox="0 0 24 24" fill="none" xmlns="http://www.w3.org/2000/svg">
<path fill-rule="evenodd" clip-rule="evenodd" d="M7 4.25C5.21421 4.25 3.75 5.71421 3.75 7.5V13.5C3.75 15.2981 5.12646 16.75 7 16.75H8.48723C8.49625 16.7498 8.50527 16.7498 8.5143 16.75H15.4859C15.4949 16.7498 15.5039 16.7498 15.5129 16.75H17C18.7858 16.75 20.25 15.2858 20.25 13.5V7.5C20.25 5.71421 18.7858 4.25 17 4.25H7ZM16.9015 18.25H17C19.6142 18.25 21.75 16.1142 21.75 13.5V7.5C21.75 4.88579 19.6142 2.75 17 2.75H7C4.38579 2.75 2.25 4.88579 2.25 7.5V13.5C2.25 16.1019 4.27354 18.25 7 18.25H7.09866L5.87604 20.0839C5.64628 20.4286 5.73941 20.8942 6.08405 21.124C6.4287 21.3538 6.89435 21.2606 7.12412 20.916L8.90144 18.25H15.0987L16.876 20.916C17.1058 21.2606 17.5715 21.3538 17.9161 21.124C18.2608 20.8942 18.3539 20.4286 18.1241 20.0839L16.9015 18.25Z" fill="black"/>
</svg>
